src/16/panel/solaar-indicator.svg

<svg xmlns="http://www.w3.org/2000/svg" width="16" height="16" version="1.1">
 <defs>
  <style id="current-color-scheme" type="text/css">
   .ColorScheme-Text { color:#dfdfdf; } .ColorScheme-Highlight { color:#5294e2; }
  </style>
 </defs>
 <path style="fill:currentColor" class="ColorScheme-Text" d="M 3,1 C 1.892,1 1,1.892 1,3 V 13 C 1,14.108 1.892,15 3,15 H 13 C 14.108,15 15,14.108 15,13 V 3 C 15,1.892 14.108,1 13,1 Z M 5.8652,2.3047 7.4512,5.0527 C 7.6322,5.0183 7.8158,5.0007 8,5 8.1836,5.0008 8.3665,5.0185 8.5469,5.0527 L 10.135,2.3047 11.865,3.3047 10.279,6.0547 C 10.518,6.3337 10.703,6.6541 10.826,7 H 14 V 9 H 10.824 C 10.703,9.3469 10.519,9.6688 10.281,9.9492 L 11.865,12.695 10.135,13.695 8.5488,10.947 C 8.3678,10.982 8.1842,10.999 8,11 7.8164,10.999 7.6335,10.982 7.4531,10.947 L 5.8652,13.695 4.1348,12.695 5.7207,9.9453 C 5.4821,9.6664 5.2968,9.3458 5.1738,9 H 2 V 7 H 5.1758 C 5.2971,6.653 5.4811,6.3312 5.7187,6.0508 L 4.1348,3.3047 Z M 8,6 A 2,2 0 0 0 6,8 2,2 0 0 0 8,10 2,2 0 0 0 10,8 2,2 0 0 0 8,6 Z"/>
</svg>

<svg xmlns="http://www.w3.org/2000/svg" width="16" height="16"><defs><style id="current-color-scheme" type="text/css"></style></defs><path d="M3 1c-1.108 0-2 .892-2 2v10c0 1.108.892 2 2 2h10c1.108 0 2-.892 2-2V3c0-1.108-.892-2-2-2zm2.865 1.305l1.586 2.748A3 3 0 0 1 8 5c.184 0 .367.019.547.053l1.588-2.748 1.73 1-1.586 2.75c.239.279.424.6.547.945H14v2h-3.176a2.987 2.987 0 0 1-.543.95l1.584 2.745-1.73 1-1.586-2.748A2.974 2.974 0 0 1 8 11a2.953 2.953 0 0 1-.547-.053l-1.588 2.748-1.73-1 1.586-2.75A3.002 3.002 0 0 1 5.174 9H2V7h3.176a3 3 0 0 1 .543-.95L4.135 3.306zM8 6a2 2 0 0 0-2 2 2 2 0 0 0 2 2 2 2 0 0 0 2-2 2 2 0 0 0-2-2z" fill="currentColor" color="#dfdfdf"/></svg>
